X: 1
T: the Scotia Girl Hornpipe
C: Ralph Page
R: hornpipe, reel
Z: 2012 John Chambers <jc:trillian.mit.edu>
B: Northern Junket, v.8, #4, March 1965
N: __
M: 2/4
L: 1/16
K: D
AG |\
FAAA A2BA | GBBB B2cB | ABcd egfe | dcdB A2AG |
FAAA A2BA | GBBB B2cB | ABcd ecAc | d2d2d2 :|
|: fg |\
a2fa d2ed | BdcB A2de | fdfa bafd | f2e2 e2fg |
a2fa d2ed | BdcB A2dc | Bcde fgec | d2d2d2 :|

%%sep 1 1 500

